img/decrease.svg

<svg width="515" height="510" xmlns="http://www.w3.org/2000/svg" xmlns:xlink="http://www.w3.org/1999/xlink" preserveAspectRatio="xMidYMid meet" version="1.1">
 <defs>
  <path id="f6KmJ3N0a9" d="m21.6,490.4c0,-280.2 0,-435.86 0,-467c0,-8.29 -2.06,-23.71 -10.35,-23.71c-8.29,0 -11.25,7.02 -11.25,15.31c0,48.2 0,433.8 0,482c0,8.29 6.71,15 15,15c48.2,0 433.8,0 482,0c8.29,0 15,-4.91 15,-13.2c0,-8.29 -15.11,-8.4 -23.4,-8.4c-62.27,0 -217.94,0 -467,0z"/>
  <path id="aLIOpjmoS" d="m91.79,56.15c23.17,12.72 139.01,76.32 347.52,190.8c-11.74,1.32 -18.27,2.06 -19.57,2.2c-8.24,0.93 -14.16,8.36 -13.23,16.59c0.96,8.3 8.41,14.14 16.59,13.23c6.66,-0.75 59.99,-6.77 66.66,-7.52c5.16,-0.58 9.66,-3.79 11.88,-8.5c2.21,-4.7 1.85,-10.22 -0.98,-14.58c-4.09,-6.29 -36.77,-56.61 -40.85,-62.9c-4.52,-6.95 -13.8,-8.92 -20.75,-4.41c-6.95,4.52 -8.93,13.8 -4.41,20.75c0.56,0.87 3.38,5.2 8.44,13c-202.12,-110.98 -314.42,-172.64 -336.88,-184.97c-7.27,-3.97 -16.39,-1.31 -20.36,5.94c-4.02,7.33 -1.24,16.44 5.94,20.37z"/>
  <path id="c7VsJa7Yl" d="m75.28,151.9c-8.29,0 -15,6.71 -15,15c0,27.1 0,243.9 0,271c0,8.29 6.71,15 15,15c6.1,0 54.9,0 61,0c8.29,0 15,-6.71 15,-15c0,-27.1 0,-243.9 0,-271c0,-8.29 -6.71,-15 -15,-15c-12.2,0 -54.9,0 -61,0z"/>
  <path id="b5QIzkqIPL" d="m497.19,451.99c8.3,0 15,-6.71 15,-15c0,-9.1 0,-81.9 0,-91c0,-8.29 -6.7,-15 -15,-15c-6.1,0 -54.9,0 -61,0c-8.29,0 -15,6.71 -15,15c0,9.1 0,81.9 0,91c0,8.29 6.71,15 15,15c12.2,0 54.9,0 61,0z"/>
  <path id="b1Un21yx87" d="m315.89,271.52c-8.29,0 -15,6.71 -15,15c0,15.1 0,135.9 0,151c0,8.29 6.71,15 15,15c6,0 54,0 60,0c8.29,0 15,-6.71 15,-15c0,-15.1 0,-135.9 0,-151c0,-8.29 -6.71,-15 -15,-15c-12,0 -48,0 -60,0z"/>
  <path id="g2umC7wMC1" d="m195.99,211.02c-8.29,0 -15,6.71 -15,15c0,21.1 0,189.9 0,211c0,8.29 6.71,15 15,15c6,0 54,0 60,0c8.29,0 15,-6.71 15,-15c0,-21.1 0,-189.9 0,-211c0,-8.29 -6.71,-15 -15,-15c-12,0 -48,0 -60,0z"/>
  <path id="coDMt5aL2" d="m485.71,83.91c0,-46.27 -39.12,-83.91 -87.2,-83.91c-48.09,0 -87.21,37.64 -87.21,83.91c0,46.26 39.12,83.9 87.21,83.9c48.08,0 87.2,-37.64 87.2,-83.9zm-111.19,27.1c4.8,0 43.17,0 47.97,0c14.87,0 26.98,11.55 27.18,25.81c-13.43,12.02 -31.42,19.39 -51.16,19.39c-19.75,0 -37.74,-7.37 -51.16,-19.39c0.19,-14.26 12.3,-25.81 27.17,-25.81zm-6.89,-41.31c0,-16.38 13.85,-29.7 30.88,-29.7c17.02,0 30.87,13.32 30.87,29.7c0,16.38 -13.85,29.71 -30.87,29.71c-17.03,0 -30.88,-13.33 -30.88,-29.71zm106.03,14.21c0,15.52 -5.12,29.92 -13.81,41.72c-4.54,-13.6 -16.9,-23.85 -31.96,-25.86c8.33,-7.53 13.54,-18.22 13.54,-30.07c0,-22.77 -19.25,-41.3 -42.92,-41.3c-23.67,0 -42.93,18.53 -42.93,41.3c0,11.85 5.21,22.54 13.54,30.07c-15.06,2.01 -27.41,12.26 -31.96,25.86c-8.69,-11.8 -13.81,-26.2 -13.81,-41.72c0,-39.88 33.72,-72.31 75.16,-72.31c41.44,0 75.15,32.43 75.15,72.31z"/>
 </defs>
 <g>
  <title>Layer 1</title>
  <g id="svg_1">
   <g id="svg_2">
    <g id="svg_3">
     <use id="svg_4" fill="#000000" xlink:href="#f6KmJ3N0a9"/>
     <g id="svg_5">
      <use id="svg_6" stroke-opacity="0" stroke="#000000" fill-opacity="0" xlink:href="#f6KmJ3N0a9"/>
     </g>
    </g>
    <g id="svg_7">
     <use id="svg_8" fill="#000000" xlink:href="#aLIOpjmoS"/>
     <g id="svg_9">
      <use id="svg_10" stroke-opacity="0" stroke="#000000" fill-opacity="0" xlink:href="#aLIOpjmoS"/>
     </g>
    </g>
    <g id="svg_11">
     <use id="svg_12" fill="#000000" xlink:href="#c7VsJa7Yl"/>
     <g id="svg_13">
      <use id="svg_14" stroke-opacity="0" stroke="#000000" fill-opacity="0" xlink:href="#c7VsJa7Yl"/>
     </g>
    </g>
    <g id="svg_15">
     <use id="svg_16" fill="#000000" xlink:href="#b5QIzkqIPL"/>
     <g id="svg_17">
      <use id="svg_18" stroke-opacity="0" stroke="#000000" fill-opacity="0" xlink:href="#b5QIzkqIPL"/>
     </g>
    </g>
    <g id="svg_19">
     <use id="svg_20" fill="#000000" xlink:href="#b1Un21yx87"/>
     <g id="svg_21">
      <use id="svg_22" stroke-opacity="0" stroke="#000000" fill-opacity="0" xlink:href="#b1Un21yx87"/>
     </g>
    </g>
    <g id="svg_23">
     <use id="svg_24" fill="#000000" xlink:href="#g2umC7wMC1"/>
     <g id="svg_25">
      <use id="svg_26" stroke-opacity="0" stroke="#000000" fill-opacity="0" xlink:href="#g2umC7wMC1"/>
     </g>
    </g>
    <g id="svg_27">
     <use id="svg_28" fill="#000000" xlink:href="#coDMt5aL2"/>
     <g id="svg_29">
      <use id="svg_30" stroke-opacity="0" stroke="#000000" fill-opacity="0" xlink:href="#coDMt5aL2"/>
     </g>
    </g>
   </g>
  </g>
 </g>
</svg>

<?xml version="1.0" encoding="UTF-8" standalone="no"?>
<!DOCTYPE svg PUBLIC "-//W3C//DTD SVG 1.1//EN" "http://www.w3.org/Graphics/SVG/1.1/DTD/svg11.dtd">
<svg version="1.1" xmlns="http://www.w3.org/2000/svg" xmlns:xlink="http://www.w3.org/1999/xlink" preserveAspectRatio="xMidYMid meet" viewBox="0 0 640 640" width="640" height="640"><defs><path d="M21.6 490.4C21.6 210.2 21.6 54.54 21.6 23.4C21.6 15.11 19.54 -0.31 11.25 -0.31C2.96 -0.31 0 6.71 0 15C0 63.2 0 448.8 0 497C0 505.29 6.71 512 15 512C63.2 512 448.8 512 497 512C505.29 512 512 507.09 512 498.8C512 490.51 496.89 490.4 488.6 490.4C426.33 490.4 270.66 490.4 21.6 490.4Z" id="f6KmJ3N0a9"></path><path d="M91.79 56.15C114.96 68.87 230.8 132.47 439.31 246.95C427.57 248.27 421.04 249.01 419.74 249.15C411.5 250.08 405.58 257.51 406.51 265.74C407.47 274.04 414.92 279.88 423.1 278.97C429.76 278.22 483.09 272.2 489.76 271.45C494.92 270.87 499.42 267.66 501.64 262.95C503.85 258.25 503.49 252.73 500.66 248.37C496.57 242.08 463.89 191.76 459.81 185.47C455.29 178.52 446.01 176.55 439.06 181.06C432.11 185.58 430.13 194.86 434.65 201.81C435.21 202.68 438.03 207.01 443.09 214.81C240.97 103.83 128.67 42.17 106.21 29.84C98.94 25.87 89.82 28.53 85.85 35.78C81.83 43.11 84.61 52.22 91.79 56.15Z" id="aLIOpjmoS"></path><path d="M75.28 151.9C66.99 151.9 60.28 158.61 60.28 166.9C60.28 194 60.28 410.8 60.28 437.9C60.28 446.19 66.99 452.9 75.28 452.9C81.38 452.9 130.18 452.9 136.28 452.9C144.57 452.9 151.28 446.19 151.28 437.9C151.28 410.8 151.28 194 151.28 166.9C151.28 158.61 144.57 151.9 136.28 151.9C124.08 151.9 81.38 151.9 75.28 151.9Z" id="c7VsJa7Yl"></path><path d="M497.19 451.99C505.49 451.99 512.19 445.28 512.19 436.99C512.19 427.89 512.19 355.09 512.19 345.99C512.19 337.7 505.49 330.99 497.19 330.99C491.09 330.99 442.29 330.99 436.19 330.99C427.9 330.99 421.19 337.7 421.19 345.99C421.19 355.09 421.19 427.89 421.19 436.99C421.19 445.28 427.9 451.99 436.19 451.99C448.39 451.99 491.09 451.99 497.19 451.99Z" id="b5QIzkqIPL"></path><path d="M315.89 271.52C307.6 271.52 300.89 278.23 300.89 286.52C300.89 301.62 300.89 422.42 300.89 437.52C300.89 445.81 307.6 452.52 315.89 452.52C321.89 452.52 369.89 452.52 375.89 452.52C384.18 452.52 390.89 445.81 390.89 437.52C390.89 422.42 390.89 301.62 390.89 286.52C390.89 278.23 384.18 271.52 375.89 271.52C363.89 271.52 327.89 271.52 315.89 271.52Z" id="b1Un21yx87"></path><path d="M195.99 211.02C187.7 211.02 180.99 217.73 180.99 226.02C180.99 247.12 180.99 415.92 180.99 437.02C180.99 445.31 187.7 452.02 195.99 452.02C201.99 452.02 249.99 452.02 255.99 452.02C264.28 452.02 270.99 445.31 270.99 437.02C270.99 415.92 270.99 247.12 270.99 226.02C270.99 217.73 264.28 211.02 255.99 211.02C243.99 211.02 207.99 211.02 195.99 211.02Z" id="g2umC7wMC1"></path><path d="M485.71 83.91C485.71 37.64 446.59 0 398.51 0C350.42 0 311.3 37.64 311.3 83.91C311.3 130.17 350.42 167.81 398.51 167.81C446.59 167.81 485.71 130.17 485.71 83.91ZM374.52 111.01C379.32 111.01 417.69 111.01 422.49 111.01C437.36 111.01 449.47 122.56 449.67 136.82C436.24 148.84 418.25 156.21 398.51 156.21C378.76 156.21 360.77 148.84 347.35 136.82C347.54 122.56 359.65 111.01 374.52 111.01ZM367.63 69.7C367.63 53.32 381.48 40 398.51 40C415.53 40 429.38 53.32 429.38 69.7C429.38 86.08 415.53 99.41 398.51 99.41C381.48 99.41 367.63 86.08 367.63 69.7ZM473.66 83.91C473.66 99.43 468.54 113.83 459.85 125.63C455.31 112.03 442.95 101.78 427.89 99.77C436.22 92.24 441.43 81.55 441.43 69.7C441.43 46.93 422.18 28.4 398.51 28.4C374.84 28.4 355.58 46.93 355.58 69.7C355.58 81.55 360.79 92.24 369.12 99.77C354.06 101.78 341.71 112.03 337.16 125.63C328.47 113.83 323.35 99.43 323.35 83.91C323.35 44.03 357.07 11.6 398.51 11.6C439.95 11.6 473.66 44.03 473.66 83.91Z" id="coDMt5aL2"></path></defs><g><g><g><use xlink:href="#f6KmJ3N0a9" opacity="1" fill="#000000" fill-opacity="1"></use><g><use xlink:href="#f6KmJ3N0a9" opacity="1" fill-opacity="0" stroke="#000000" stroke-width="1" stroke-opacity="0"></use></g></g><g><use xlink:href="#aLIOpjmoS" opacity="1" fill="#000000" fill-opacity="1"></use><g><use xlink:href="#aLIOpjmoS" opacity="1" fill-opacity="0" stroke="#000000" stroke-width="1" stroke-opacity="0"></use></g></g><g><use xlink:href="#c7VsJa7Yl" opacity="1" fill="#000000" fill-opacity="1"></use><g><use xlink:href="#c7VsJa7Yl" opacity="1" fill-opacity="0" stroke="#000000" stroke-width="1" stroke-opacity="0"></use></g></g><g><use xlink:href="#b5QIzkqIPL" opacity="1" fill="#000000" fill-opacity="1"></use><g><use xlink:href="#b5QIzkqIPL" opacity="1" fill-opacity="0" stroke="#000000" stroke-width="1" stroke-opacity="0"></use></g></g><g><use xlink:href="#b1Un21yx87" opacity="1" fill="#000000" fill-opacity="1"></use><g><use xlink:href="#b1Un21yx87" opacity="1" fill-opacity="0" stroke="#000000" stroke-width="1" stroke-opacity="0"></use></g></g><g><use xlink:href="#g2umC7wMC1" opacity="1" fill="#000000" fill-opacity="1"></use><g><use xlink:href="#g2umC7wMC1" opacity="1" fill-opacity="0" stroke="#000000" stroke-width="1" stroke-opacity="0"></use></g></g><g><use xlink:href="#coDMt5aL2" opacity="1" fill="#000000" fill-opacity="1"></use><g><use xlink:href="#coDMt5aL2" opacity="1" fill-opacity="0" stroke="#000000" stroke-width="1" stroke-opacity="0"></use></g></g></g></g></svg>
